X: 36906
T: Shoot The Donkey
R: mazurka
M: 3/4
K: Gmajor
|:G>A|B2 D2 G>A|B2 D2 G>A|[D2B2] [E2A2] D2B2]|A2 [C2D2] F>G|
A2 [C2D2] F>G|A2 [C2D2] [CF]>G|A2 [F2c2e2] [C2F2]|[B,4G4]:|
|:B>c|d2 g2 f2|c4 A>B|c2 e2 d2|B4 G>A|
[D2B2] A2 B2|c4 c>e|e2 E2 [C2A2]|[B,4G4]:|

